X:16602
T:Paddy Carey
R:Jig
C:Trad.
O:England
Z:Paul Hardy's Annex Tunebook 2015 (see www.paulhardy.net). Creative Commons cc by-nc-sa licenced.
M:6/8
L:1/8
Q:3/8=100
K:D
"D"A2d dcd|f2d dcd|"Em"B2e e2f|"G"gfe dcB|
"D"A2d dcd|f2d dcd|"A7"ecA ABc|"D"def e2d:|
|:"D"d2f "G"g2b|"D"a2b afd|d2f "G"g2b|"A7"afd e2d|
"D"d2f "G"g2b|"D"a2b afd|"A7"ecA ABc|"D"def e2d:|
|:"Em"g2e ede|"D"f2d dcd|"A"ecA ABc|"D"def e2d|
"Em"g2e ede|"D"f2d dcd|"A"ecA ABc|"D"def e2d:|

